X:22
T: Der Bremberger
N: A0023B
O: Europa, Mitteleuropa, Deutschland
N: Neuere Melodie, noch 1850 am Niederrhein gehoert.
R: Romanze, Ballade, Lied
M: 6/8
L: 1/16
K: G
d2 | _B4A2G4=F2 | G4A2_B4
d2 | _B4A2G4=F2 | G4A2_B4
Bc | d4d2d2_e2d2 | d6c4
A_B | c4c2c2d2c2 | c6_B4
BA | G4dc_B3cAB | G6z4

